X:1
T:Buenos Aires, 87.87 D
T:Buenos Aires, 87.87 D
T:Ira David Sankey, 1901
T:Public Domain Courtesy of the Cyber Hymnal™
C:Ira David Sankey, 1901
Z:Public Domain
Z:Courtesy of the Cyber Hymnal™
%%score ( 1 2 ) 3
L:1/8
Q:1/4=92
M:3/4
K:F
V:1 treble 
V:2 treble 
V:3 bass 
V:1
 F>[FG] | [FA]3 [FA] [FA]>[EG] | [EG] F3 [CF][FA] | [Ac]3 [FA] [FA]F | [EG]4 F>[FG] | %5
 [FA]3 [FA] [CG][CF][B,D] [DF]3 F>[FG] | [FA]3 [CF] [EG]>[CF] | [CF]4 [FA]>[GB] | %8
 [Ac]3 [Ac] [Bd]>[Ac] | [Ac] [FA]3 [FA][EB] | [Fc]3 [FB] [GB][FA] | [EG]4 C>[CF] | %12
 [FA]3 [CF] [CG][CF] | [B,D] [DF]3 F>[FG] | [FA]3 [CF] [EG]>[CF] | [CF]4 |] %16
V:2
 F3/2 x/ | x6 | x F3 x2 | x5 F | x4 F3/2 x/ | x10 F3/2 x/ | x6 | x6 | x6 | x6 | x6 | x4 C3/2 x/ | %12
 x6 | x4 F3/2 x/ | x6 | x4 |] %16
V:3
 [F,A,]>[F,B,] | [F,C]3 [F,C] [C,C]>[C,B,] | [F,B,] [F,A,]3 [F,A,][F,C] | %3
 [F,F]3 [F,C] [F,C][A,,C] | [C,C]4 [F,A,]>[F,B,] | %5
 [F,C]3 [F,C] [F,B,][F,A,][B,,B,] [B,,B,]3 [A,,C]>[B,,D] | [C,C]3 [C,A,] [C,B,]>[F,A,] | %7
 [F,A,]4 [F,C]>[F,C] | [F,F]3 [F,F] [F,F]>[F,F] | [F,F] [F,C]3 [F,C][G,C] | %10
 [A,C]3 [F,C] [E,C][F,C] | [C,C]4 [F,A,]>[F,A,] | [F,C]3 [F,A,] [F,B,][F,A,] | %13
 [B,,B,] [B,,B,]3 [A,,C]>[B,,D] | [C,C]3 [C,A,] [C,B,]>[F,A,] | [F,A,]4 |] %16

